X: 21062
M: 2/4
L: 1/16
K: Bb
[|!f!\
a2gf g2f2 | f2ed e2d2 | d2cB F2A2 | B2z2 b2 |]\
d2e2d2c2 | B2d2f4 | g2f2c2f2 | d6 F2 |
d2e2d2c2 | B2d2f4 | g2f2e2c2 | B6 B2 |\
c2c2d2=e2 | f2g2a2b2 | Ta2g2g2a2 | g2f2 c2AB |\
c2c2d2=e2 | f2g2a2d'2 | c'2b2d2=e2 | "^D.C."f6 |]


